modules/hawcons-stroke/icons/basketball.svg

<?xml version="1.0" encoding="UTF-8" standalone="no"?>
<svg width="32px" height="32px" viewBox="0 0 32 32" version="1.1" xmlns="http://www.w3.org/2000/svg" xmlns:xlink="http://www.w3.org/1999/xlink" xmlns:sketch="http://www.bohemiancoding.com/sketch/ns">
    <!-- Generator: Sketch 3.0.3 (7891) - http://www.bohemiancoding.com/sketch -->
    <title>icon 1 basketball</title>
    <desc>Created with Sketch.</desc>
    <defs></defs>
    <g id="Page-1" stroke="none" stroke-width="1" fill="none" fill-rule="evenodd" sketch:type="MSPage">
        <g id="icon-1-basketball" sketch:type="MSArtboardGroup" fill="#929292">
            <path d="M17,5.01067418 C19.8101545,5.1308899 22.3590972,6.25958557 24.2941063,8.04403932 L24.2941063,8.04403932 C22.3537641,10.1553555 21.1303481,12.9359954 21.0098172,16 L17,16 L17,5.01067418 L17,5.01067418 Z M16,5.01067418 C13.1898455,5.1308899 10.6409028,6.25958557 8.7058937,8.04403932 L8.70589371,8.04403932 C10.6462359,10.1553555 11.8696519,12.9359954 11.9901828,16 L16,16 L16,5.01067418 L16,5.01067418 Z M17,27.9893258 C19.8101545,27.8691101 22.3590972,26.7404144 24.2941063,24.9559607 L24.2941063,24.9559607 C22.3537641,22.8446445 21.1303481,20.0640046 21.0098172,17 L17,17 L17,27.9893258 L17,27.9893258 Z M16,27.9893258 C13.1898455,27.8691101 10.6409028,26.7404144 8.70589371,24.9559607 C10.6462359,22.8446445 11.8696519,20.0640046 11.9901828,17 L16,17 L16,27.9893258 L16,27.9893258 Z M25,8.75391932 C26.7589727,10.682986 27.8701021,13.2130336 27.9893258,16 L27.9893258,16 L22.0106742,16 C22.1298979,13.2130336 23.2410273,10.682986 25,8.75391932 L25,8.75391932 L25,8.75391932 Z M25,24.2460807 C26.7589727,22.317014 27.8701021,19.7869664 27.9893258,17 L27.9893258,17 L22.0106742,17 C22.1298979,19.7869664 23.2410273,22.317014 25,24.2460807 L25,24.2460807 L25,24.2460807 Z M5.01067418,16 C5.12989794,13.2130336 6.24102729,10.682986 8,8.75391932 L8,8.75391932 C9.75897271,10.682986 10.8701021,13.2130336 10.9893258,16 L5.01067418,16 L5.01067418,16 Z M5.01067418,17 C5.12989794,19.7869664 6.24102729,22.317014 8,24.2460807 C9.75897271,22.317014 10.8701021,19.7869664 10.9893258,17 L5.01067418,17 L5.01067418,17 Z M16.5,29 C23.4035597,29 29,23.4035597 29,16.5 C29,9.59644029 23.4035597,4 16.5,4 C9.59644029,4 4,9.59644029 4,16.5 C4,23.4035597 9.59644029,29 16.5,29 L16.5,29 Z" id="basketball" sketch:type="MSShapeGroup"></path>
        </g>
    </g>
</svg>

<svg width="32" height="32" viewBox="0 0 32 32" xmlns="http://www.w3.org/2000/svg"><path d="M17 5.01c2.81.12 5.36 1.25 7.294 3.034A12.452 12.452 0 0 0 21.01 16H17V5.01zm-1 0c-2.81.12-5.36 1.25-7.294 3.034A12.452 12.452 0 0 1 11.99 16H16V5.01zm1 22.98c2.81-.12 5.36-1.25 7.294-3.034A12.452 12.452 0 0 1 21.01 17H17v10.99zm-1 0a11.456 11.456 0 0 1-7.294-3.034A12.452 12.452 0 0 0 11.99 17H16v10.99zm9-19.236A11.456 11.456 0 0 1 27.99 16h-5.98A11.456 11.456 0 0 1 25 8.754zm0 15.492A11.456 11.456 0 0 0 27.99 17h-5.98A11.456 11.456 0 0 0 25 24.246zM5.01 16A11.456 11.456 0 0 1 8 8.754 11.456 11.456 0 0 1 10.99 16H5.01zm0 1A11.456 11.456 0 0 0 8 24.246 11.456 11.456 0 0 0 10.99 17H5.01zM16.5 29C23.404 29 29 23.404 29 16.5S23.404 4 16.5 4 4 9.596 4 16.5 9.596 29 16.5 29z" fill="#929292" fill-rule="evenodd"/></svg>
